packages/icons/svg/Fill/funnel.svg

<svg width="24" height="24" viewBox="0 0 24 24" fill="none" xmlns="http://www.w3.org/2000/svg">
<g id="Icon/Fill/funnel">
<path id="Mask" fill-rule="evenodd" clip-rule="evenodd" d="M13.9034 22C13.6894 22 13.4774 21.932 13.3004 21.797L9.27438 18.752C9.02438 18.563 8.87738 18.268 8.87738 17.955V14.681L4.11138 5.459C3.95138 5.149 3.96438 4.778 4.14638 4.48C4.32738 4.182 4.65138 4 5.00038 4H19.0004C19.3524 4 19.6784 4.185 19.8594 4.488C20.0394 4.79 20.0474 5.166 19.8804 5.475L14.9034 14.69V21C14.9034 21.379 14.6884 21.726 14.3484 21.896C14.2074 21.965 14.0554 22 13.9034 22Z" fill="#000000"/>
</g>
</svg>

<svg fill="none" height="24" viewBox="0 0 24 24" width="24" xmlns="http://www.w3.org/2000/svg"><path clip-rule="evenodd" d="m13.9033 22c-.214 0-.426-.068-.603-.203l-4.02601-3.045c-.25-.189-.397-.484-.397-.797v-3.274l-4.766-9.222c-.16-.31-.147-.681.035-.979.181-.298.505-.48.854-.48h14.00001c.352 0 .678.185.859.488.18.302.188.678.021.987l-4.977 9.215v6.31c0 .379-.215.726-.555.896-.141.069-.293.104-.445.104" fill="#6b7280" fill-rule="evenodd"/></svg>
